X: 25674
T: Martin Wynne's
R: slip jig
M: 9/8
K: Gmajor
|:B2G d2B A2B|G2B A2 G E2 D|B2G d2B A2B|d2 ba2 g e2d:|
~g3 g2e d2B|G2B A2G E2D|1 ~g3 g2e d2 B|d2b a2g ed2:|2 Bcd g2b a2g|b2g f2g e2f||

